static/images/security.svg

<svg height="101" viewBox="0 0 101 101" width="101" xmlns="http://www.w3.org/2000/svg" xmlns:xlink="http://www.w3.org/1999/xlink"><defs><ellipse id="a" cx="36.254902" cy="35.833333" rx="36.254902" ry="35.833333"/><filter id="b" height="172.6%" width="171.7%" x="-35.9%" y="-30.7%"><feOffset dx="0" dy="4" in="SourceAlpha" result="shadowOffsetOuter1"/><feGaussianBlur in="shadowOffsetOuter1" result="shadowBlurOuter1" stdDeviation="8"/><feColorMatrix in="shadowBlurOuter1" type="matrix" values="0 0 0 0 0.254901961   0 0 0 0 0.458823529   0 0 0 0 0.647058824  0 0 0 0.24 0"/></filter><linearGradient id="c" x1="0%" x2="149.460671%" y1="0%" y2="71.875%"><stop offset="0" stop-color="#00eaf8"/><stop offset="1" stop-color="#6d42ef"/></linearGradient></defs><g fill="none" fill-rule="evenodd" transform="translate(14.166667 12.166667)"><g fill-rule="nonzero"><use fill="#000" filter="url(#b)" xlink:href="#a"/><use fill="#fff" fill-rule="evenodd" xlink:href="#a"/></g><path d="m36.658321 55.5315277c-.1072082.0093133-.2088608-.0023908-.2977808-.0342079-3.8361954-1.8979258-7.9766911-5.6462472-11.2797076-10.5260999-3.7292728-5.3004192-6.1026536-11.6868701-6.530357-18.1282832-.0201299-.6328251.1679993-.9580236.5936688-1.1695667l17.2163958-8.7717499c.086143-.0328501.1873036-.0451598.2955301-.0353897.1092092-.0102003.2113038.0021052.2981387.0353897l17.2163957 8.7717499c.549304.3208028.720261.8500545.5936688 1.1695667-.3253066.5410825-.8626.7094807-1.1873376.5847833l-15.6904866-7.9942995v33.4860639c6.2284232-3.7654 12.5215869-12.4552224 14.503149-21.9830644.1107681-.3604879.5834439-.6636142 1.1873376-.5847833.3632743.1148838.6746432.5750469.5936688 1.1695666-2.2828316 10.5907919-9.8199985 20.3678623-17.2163957 23.9761165-.0877997.0318121-.1888768.0435417-.295888.0342079zm-.5846168-23.1942467v-5.1211578l-5.4068399-5.3259152c-.0308917-.0304293-.0590392-.062538-.0844426-.0960278l-3.474677 1.7113356zm0 2.4810255-10.4352148-10.2790301c-.0696078-.0685659-.125283-.1456589-.1670255-.2278653l-3.5638968 1.7552777 14.1661371 13.8806109zm0 7.6034846-15.7275929-15.4105947c.1778631 1.9904129.5218443 3.9335768 1.0265891 5.8260148.0288888.0224696.0566845.0469509.0831916.0734425l14.6178122 14.6092432zm0 7.5973077-13.4820958-13.4741926c1.0751874 2.7372918 2.5046368 5.3550573 4.2702307 7.8415303 2.5873257 3.8805991 6.0759495 7.1718901 9.2118651 8.9063974zm0-30.9294656-3.8208297 1.8818215 3.8208297 3.763643z" fill="url(#c)"/></g></svg>

<?xml version="1.0" encoding="UTF-8"?>
<svg width="101px" height="101px" viewBox="0 0 101 101" version="1.1" xmlns="http://www.w3.org/2000/svg" xmlns:xlink="http://www.w3.org/1999/xlink">
    <!-- Generator: Sketch 46.2 (44496) - http://www.bohemiancoding.com/sketch -->
    <title>ic/scale</title>
    <desc>Created with Sketch.</desc>
    <defs>
        <ellipse id="path-1" cx="36.254902" cy="35.8333333" rx="36.254902" ry="35.8333333"></ellipse>
        <filter x="-35.9%" y="-30.7%" width="171.7%" height="172.6%" filterUnits="objectBoundingBox" id="filter-2">
            <feOffset dx="0" dy="4" in="SourceAlpha" result="shadowOffsetOuter1"></feOffset>
            <feGaussianBlur stdDeviation="8" in="shadowOffsetOuter1" result="shadowBlurOuter1"></feGaussianBlur>
            <feColorMatrix values="0 0 0 0 0.254901961   0 0 0 0 0.458823529   0 0 0 0 0.647058824  0 0 0 0.24 0" type="matrix" in="shadowBlurOuter1"></feColorMatrix>
        </filter>
        <linearGradient x1="0%" y1="0%" x2="149.460671%" y2="71.875%" id="linearGradient-3">
            <stop stop-color="#00EAF8" offset="0%"></stop>
            <stop stop-color="#6D42EF" offset="100%"></stop>
        </linearGradient>
    </defs>
    <g id="Page-1" stroke="none" stroke-width="1" fill="none" fill-rule="evenodd">
        <g id="Rakam-UI-Screen-10/10/2017-event" transform="translate(-208.000000, -1129.000000)">
            <g id="Advanced-BI" transform="translate(148.000000, 744.000000)">
                <g id="icons">
                    <g id="2" transform="translate(7.000000, 383.000000)">
                        <g id="ic/security" transform="translate(53.000000, 0.000000)">
                            <g id="Group" transform="translate(14.166667, 14.166667)">
                                <g id="Oval" fill-rule="nonzero">
                                    <use fill="black" fill-opacity="1" filter="url(#filter-2)" xlink:href="#path-1"></use>
                                    <use fill="#FFFFFF" fill-rule="evenodd" xlink:href="#path-1"></use>
                                </g>
                                <path d="M36.658321,55.5315277 C36.5511128,55.540841 36.4494602,55.5291369 36.3605402,55.4973198 C32.5243448,53.599394 28.3838491,49.8510726 25.0808326,44.9712199 C21.3515598,39.6708007 18.978179,33.2843498 18.5504756,26.8429367 C18.5303457,26.2101116 18.7184749,25.8849131 19.1441444,25.67337 L36.3605402,16.9016201 C36.4466832,16.86877 36.5478438,16.8564603 36.6560703,16.8662304 C36.7652795,16.8560301 36.8673741,16.8683356 36.954209,16.9016201 L54.1706047,25.67337 C54.7199087,25.9941728 54.8908657,26.5234245 54.7642735,26.8429367 C54.4389669,27.3840192 53.9016735,27.5524174 53.5769359,27.42772 L37.8864493,19.4334205 L37.8864493,52.9194844 C44.1148725,49.1540844 50.4080362,40.464262 52.3895983,30.93642 C52.5003664,30.5759321 52.9730422,30.2728058 53.5769359,30.3516367 C53.9402102,30.4665205 54.2515791,30.9266836 54.1706047,31.5212033 C51.8877731,42.1119952 44.3506062,51.8890656 36.954209,55.4973198 C36.8664093,55.5291319 36.7653322,55.5408615 36.658321,55.5315277 Z M36.0737042,32.337281 L36.0737042,27.2161232 L30.6668643,21.890208 C30.6359726,21.8597787 30.6078251,21.82767 30.5824217,21.7941802 L27.1077447,23.5055158 L36.0737042,32.337281 Z M36.0737042,34.8183065 L25.6384894,24.5392764 C25.5688816,24.4707105 25.5132064,24.3936175 25.4714639,24.3114111 L21.9075671,26.0666888 L36.0737042,39.9472997 L36.0737042,34.8183065 Z M36.0737042,42.4217911 L20.3461113,27.0111964 C20.5239744,29.0016093 20.8679556,30.9447732 21.3727004,32.8372112 C21.4015892,32.8596808 21.4293849,32.8841621 21.455892,32.9106537 L36.0737042,47.5198969 L36.0737042,42.4217911 Z M36.0737042,50.0190988 L22.5916084,36.5449062 C23.6667958,39.282198 25.0962452,41.8999635 26.8618391,44.3864365 C29.4491648,48.2670356 32.9377886,51.5583266 36.0737042,53.2928339 L36.0737042,50.0190988 Z M36.0737042,19.0896332 L32.2528745,20.9714547 L36.0737042,24.7350977 L36.0737042,19.0896332 Z" id="Combined-Shape" fill="url(#linearGradient-3)"></path>
                            </g>
                        </g>
                    </g>
                </g>
            </g>
        </g>
    </g>
</svg>
